X:1
T:Ne Irascaris duo with linked tablature + rehearsal letters
T:Ne irascaris
T:William Byrd
T:nalvi.org
T:Duo for Two Viols from the John Merro collection (1673)
%%score { ( 1 3 ) | ( 2 4 ) } { ( 5 7 ) | ( 6 8 ) }
L:1/8
Q:1/4=100
M:2/2
K:C
V:1 bass nm="Viol 1 - ffeff"
V:3 bass 
V:2 tab stafflines=6 strings=D2,G2,C3,E3,A3,D4 nostems 
V:4 tab stafflines=6 strings=D2,G2,C3,E3,A3,D4 nostems 
V:5 bass nm="Viol 2 - ffefh"
V:7 bass 
V:6 tab stafflines=6 strings=C2,G2,C3,E3,A3,D4 nostems 
V:8 tab stafflines=6 strings=C2,G2,C3,E3,A3,D4 nostems 
V:1
 C,8 | C,8 | C,8 | %3
w: 0|||
"^Pages 163 - 165 in Book 1 / Pages 188 - 190 in Book 2 - Plainway / Plainway w/dropped C" C,4 C,4 | %4
w: |
 C,8 | C,8 | D,8 | D,4 D,4 | D,8 | D,4"^(No tie in original)" F,4- | F,2 E,2 C,4 | %11
w: |||||||
 [G,,D,]4 [D,G,]4 |"^A" [E,G,C]8 | [C,G,C]8 | C8 | C4 C4 | C8 | C8 | D8 | D4 D4 | D8 |"^B" D4 D4- | %22
w: |||||||||||
 D2 E2 C4 | [CD]4 [B,D]4 |"^C" [C,E,CE]8 | [C,G,]4 [E,C]4 | [F,C]4 [A,F]4 | [F,A,]4 F4 | %28
w: ||||||
 [A,F]2 G,2 [G,_B,D]4 | [G,A,D]4 [^F,A,D]4 |"^D" [G,B,D]4 D,2 E,2 | %31
w: |||
 F,2 G,2"^(No slurs in oriinal)" C2 x2 | D2 x2 [CE]4 | [CF]4 [B,F]4 |"^E" [CE]4 G,4 | %35
w: ||||
 [C,G,]4 [CE]4 | [C,G,]4 [CE]4 | [A,F]2 C2 [B,F]2 A,2 | [B,D]4 G,4 | [G,B,D]4 E4 | %40
w: |||||
 [A,E]2 D2 C2 B,2 | [A,C]4 A,4 | [E,B,]4 [^G,B,]4 | [E,B,]8 |"^F" A,4 [CE]4 | A,4 C4 | %46
w: ||||||
 [A,F]4 C2 E2 | [B,D]4 [A,C]4 | [CD]2 B,A, [B,D]2 G,2 |"^G" [CE]4 E,4 | [G,,D,]4 [A,,C,]4 | %51
w: |||||
 [F,A,]6 E,2 |"^(   )" [D,F,]4"^(   )" [A,,C,]4 | B,,4 E,4 | [G,,D,]4 [G,B,]4 | %55
w: ||||
"^(    )""^(    )""^H" [A,,C,E,A,]4 G,4 | [E,C]4 E2 B,2 | [A,D]4 [E,C]4 | [D,F,A,F]4 C,2 E2 | %59
w: ||||
 [F,CD]2 B,2 [A,C]2 E,2 | [G,,D,G,B,]4 [E,C]4 | [G,C]4 [G,B,]4 | [C,G,C]8 |"^I" G8 | G8 | [CE]8 | %66
w: |||||||
 C8 | G,4 G4 | G8 | [_B,D]8 | [_B,D]4 A,2 G,2 | [^F,A,D]2 G,2 [A,D]2 E2 | [A,F]2 D2 [A,F]4 | %73
w: |||||||
 [A,F]4 E4 | [F,A,E]4 D2 [B,D]2 | [CE]2 A,2 [CE]4 |"^J" [E,C]4 _B,4 | A,4 A,4 | [C,G,]4 C4 | %79
w: ||||||
"^K" A8 | [A,A]8 | [D^F]4 D,2 E,2 | [^F,A,D]2 G,2 A,2 F,2 | [G,B,]4 G4 | G4 [DF]4 | E2 C2 [CE]4 | %86
w: |||||||
 [G,B,D]4 [G,B,D]4 |"^L" [C,G,C]4 [F,C]4 | [E,C]4 B,2 G,2 | [D,G,]4 [D,^F,]2 A,2 | G,6 A,2 | %91
w: |||||
 [E,B,]2 D,2 A,2 D,2 | D,4 [^C,G,]4 | [D,G,]4 [D,F,A,D]4 | [E,D]2 C2 [E,C]4 | [G,,D,G,C]4 [G,B,]4 | %96
w: |||||
"^\nM" [C,G,C]4 E,4 | [G,C]2 F,2 [C,G,]4 | A,4 [A,C]4 | G,2 D2 [CE]4 | [A,F]4 [DF]4 | D4 D4 | %102
w: |||* 0 *|||
"^N" [G,B,D]4 G,2 A,2 | [B,G]2 G,2 D4 | G2 C2 [CG]4 | [CF]4 [B,F]4 |"^O" [CE]4 G,,4- | %107
w: |||||
 G,,2 F,,2 G,,4 | A,,4 C,4- | C,2 D,2 E,4 | [C,G,]4 [G,,D,]2 C,2 |"^P" [G,,D,]2 A,,2 B,,2 C,2 | %112
w: |||||
 D,2 E,2 F,2 G,2 | [F,A,]6 E,2 | D,2 C,2 [C,G,]4 | [C,F,]4 B,,4 |"^Q" [C,E,]4 [C,E,C]4- | %117
w: |||||
 [C,E,C]2 D2 [CE]4 | G4 [CG]4 | [CD]4- [CD]3 B,/A,/ |"^R" [B,D]4 G,4 | [E,G,]4 [A,E]2 B,2 | %122
w: |||||
 [CE]2 F2 [B,G]4 | [A,A]2 G,2 A,2 B,2 | C2 A2 [CG]4 | [F,A,F]4 [B,D]4 |"^S" [E,CG]4 G,2 F2 | %127
w: |||||
 E2 A,2 [G,B,D]2 E2 | [A,F]4 [CE]2 A,2 | [CE]4 [G,B,]4 |"^T" [F,A,]4 C4 | %131
w: ||||
 E,2"^(No slur in original)" (D2 E2) G,2 | G2 A,2 [B,D]4 | [A,F]4 [C,E,CE]4 |"^U" C,2 D,2 [E,C]4 | %135
w: ||||
 [G,B,]4 D,4 | [F,A,]4 [C,E,CE]2 D,2 | E,2 F2 G4 | A2 F,2 [A,A]4- | [A,A]2 B,2 [CG]4 | %140
w: |||4 2 *||
 [DG]4 [D^F]4 |"^V" [DG]4 [CE]4 | [B,G]4 G,2 A,2 | B,2 G,2 D4 | G,2 C2 G4 | C2 F2 [G,B,D]4 | %146
w: ||||||
 !fermata![C,G,CE]8 |] %147
w: |
V:2
 !4!C,8 | !4!C,8 | !4!C,8 | !4!C,4 !4!C,4 | !4!C,8 | !4!C,8 | !4!D,8 | !4!D,4 !4!D,4 | !4!D,8 | %9
 !4!D,4 !3!F,4- | !3!F,2 !3!E,2 !4!C,4 | [!5!G,,!4!D,]4 [!4!D,!3!G,]4 | [!4!E,!3!G,!2!C]8 | %13
 [!4!C,!3!G,!2!C]8 | !2!C8 | !2!C4 !2!C4 | !2!C8 | !2!C8 | !1!D8 | !1!D4 !1!D4 | !1!D8 | %21
 !1!D4 !1!D4- | !1!D2 !1!E2 !2!C4 | [!2!C!1!D]4 [!2!B,!1!D]4 | [!4!C,!3!E,!2!C!1!E]8 | %25
 [!4!C,!3!G,]4 [!3!E,!2!C]4 | [!3!F,!2!C]4 [!2!A,!1!F]4 | [!3!F,!2!A,]4 !1!F4 | %28
 [!2!A,!1!F]2 !3!G,2 [!3!G,!2!_B,!1!D]4 | [!3!G,!2!A,!1!D]4 [!3!^F,!2!A,!1!D]4 | %30
 [!3!G,!2!B,!1!D]4 !4!D,2 !3!E,2 | !3!F,2 !3!G,2 !2!C2 x2 | !1!D2 x2 [!2!C!1!E]4 | %33
 [!2!C!1!F]4 [!2!B,!1!F]4 | [!2!C!1!E]4 !3!G,4 | [!4!C,!3!G,]4 [!2!C!1!E]4 | %36
 [!4!C,!3!G,]4 [!2!C!1!E]4 | [!2!A,!1!F]2 !2!C2 [!2!B,!1!F]2 !2!A,2 | [!2!B,!1!D]4 !3!G,4 | %39
 [!3!G,!2!B,!1!D]4 !1!E4 | [!2!A,!1!E]2 !1!D2 !2!C2 !2!B,2 | [!3!A,!2!C]4 !2!A,4 | %42
 [!3!E,!2!B,]4 [!3!^G,!2!B,]4 | [!3!E,!2!B,]8 | !2!A,4 [!2!C!1!E]4 | !2!A,4 !2!C4 | %46
 [!2!A,!1!F]4 !2!C2 !1!E2 | [!2!B,!1!D]4 [!3!A,!2!C]4 | %48
 [!2!C!1!D]2 !2!B, !2!A, [!2!B,!1!D]2 !3!G,2 | [!2!C!1!E]4 !3!E,4 | [!5!G,,!4!D,]4 [!5!A,,!4!C,]4 | %51
 [!3!F,!2!A,]6 !3!E,2 | [!4!D,!3!F,]4 [!5!A,,!4!C,]4 | !5!B,,4 !3!E,4 | %54
 [!5!G,,!4!D,]4 [!3!G,!2!B,]4 |"^(    )" [!5!A,,!4!C,!3!E,!2!A,]4 !3!G,4 | %56
 [!3!E,!2!C]4 !1!E2 !2!B,2 | [!2!A,!1!D]4 [!3!E,!2!C]4 | [!4!D,!3!F,!2!A,!1!F]4 !4!C,2 !1!E2 | %59
 [!3!F,!2!C!1!D]2 !2!B,2 [!3!A,!2!C]2 !3!E,2 | [!5!G,,!4!D,!3!G,!2!B,]4 [!3!E,!2!C]4 | %61
 [!3!G,!2!C]4 [!3!G,!2!B,]4 | [!4!C,!3!G,!2!C]8 | !1!G8 | !1!G8 | [!2!C!1!E]8 | !2!C8 | %67
 !3!G,4 !1!G4 | !1!G8 | [!2!_B,!1!D]8 | [!2!_B,!1!D]4 !2!A,2 !3!G,2 | %71
 [!3!^F,!2!A,!1!D]2 !3!G,2 [!2!A,!1!D]2 !1!E2 | [!2!A,!1!F]2 !1!D2 [!2!A,!1!F]4 | %73
 [!2!A,!1!F]4 !1!E4 | [!3!F,!2!A,!1!E]4 !1!D2 [!2!B,!1!D]2 | [!2!C!1!E]2 !2!A,2 [!2!C!1!E]4 | %76
 [!3!E,!2!C]4 !2!_B,4 | !2!A,4 !2!A,4 | [!4!C,!3!G,]4 !2!C4 | !1!A8 | [!2!A,!1!A]8 | %81
 [!2!D!1!^F]4 !4!D,2 !3!E,2 | [!3!^F,!2!A,!1!D]2 !3!G,2 !2!A,2 !3!F,2 | [!3!G,!2!B,]4 !1!G4 | %84
 !1!G4 [!2!D!1!F]4 | !1!E2 !2!C2 [!2!C!1!E]4 | [!3!G,!2!B,!1!D]4 [!3!G,!2!B,!1!D]4 | %87
 [!4!C,!3!G,!2!C]4 [!3!F,!2!C]4 | [!3!E,!2!C]4 !2!B,2 !3!G,2 | %89
 [!4!D,!3!G,]4 [!4!D,!3!^F,]2 !2!A,2 | !3!G,6 !2!A,2 | [!3!E,!2!B,]2 !4!D,2 !2!A,2 !4!D,2 | %92
 !4!D,4 [!4!^C,!3!G,]4 | [!4!D,!3!G,]4 [!4!D,!3!F,!2!A,!1!D]4 | [!3!E,!1!D]2 !2!C2 [!3!E,!2!C]4 | %95
 [!5!G,,!4!D,!3!G,!2!C]4 [!3!G,!2!B,]4 | [!4!C,!3!G,!2!C]4 !3!E,4 | %97
 [!3!G,!2!C]2 !3!F,2 [!4!C,!3!G,]4 | !2!A,4 [!3!A,!2!C]4 | !3!G,2 !1!D2 [!2!C!1!E]4 | %100
 [!2!A,!1!F]4 [!2!D!1!F]4 | !1!D4 !1!D4 | [!3!G,!2!B,!1!D]4 !3!G,2 !2!A,2 | %103
 [!2!B,!1!G]2 !3!G,2 !1!D4 | !1!G2 !2!C2 [!2!C!1!G]4 | [!2!C!1!F]4 [!2!B,!1!F]4 | %106
 [!2!C!1!E]4 !5!G,,4- | !5!G,,2 !6!F,,2 !5!G,,4 | !5!A,,4 !4!C,4- | !4!C,2 !4!D,2 !3!E,4 | %110
 [!4!C,!3!G,]4 [!5!G,,!4!D,]2 !4!C,2 | [!5!G,,!4!D,]2 !5!A,,2 !5!B,,2 !4!C,2 | %112
 !4!D,2 !3!E,2 !3!F,2 !3!G,2 | [!3!F,!2!A,]6 !3!E,2 | !4!D,2 !4!C,2 [!4!C,!3!G,]4 | %115
 [!4!C,!3!F,]4 !5!B,,4 | [!4!C,!3!E,]4 [!4!C,!3!E,!2!C]4- | [!4!C,!3!E,!2!C]2 !1!D2 [!2!C!1!E]4 | %118
 !1!G4 [!2!C!1!G]4 | [!2!C!1!D]4- [!2!C!1!D]3 !2!B,/ !2!A,/ | [!2!B,!1!D]4 !3!G,4 | %121
 [!4!E,!3!G,]4 [!2!A,!1!E]2 !2!B,2 | [!2!C!1!E]2 !1!F2 [!2!B,!1!G]4 | %123
 [!2!A,!1!A]2 !3!G,2 !2!A,2 !2!B,2 | !2!C2 !1!A2 [!2!C!1!G]4 | [!3!F,!2!A,!1!F]4 [!2!B,!1!D]4 | %126
 [!3!E,!2!C!1!G]4 !3!G,2 !1!F2 | !1!E2 !2!A,2 [!3!G,!2!B,!1!D]2 !1!E2 | %128
 [!2!A,!1!F]4 [!2!C!1!E]2 !2!A,2 | [!2!C!1!E]4 [!3!G,!2!B,]4 | [!3!F,!2!A,]4 !2!C4 | %131
 !3!E,2 (!1!D2 !1!E2) !3!G,2 | !1!G2 !2!A,2 [!2!B,!1!D]4 | [!2!A,!1!F]4 [!4!C,!3!E,!2!C!1!E]4 | %134
 !4!C,2 !4!D,2 [!3!E,!2!C]4 | [!3!G,!2!B,]4 !4!D,4 | [!3!F,!2!A,]4 [!4!C,!3!E,!2!C!1!E]2 !4!D,2 | %137
 !3!E,2 !1!F2 !1!G4 | !1!A2 !3!F,2 [!2!A,!1!A]4- | [!2!A,!1!A]2 !2!B,2 [!2!C!1!G]4 | %140
 [!2!D!1!G]4 [!2!D!1!^F]4 | [!2!D!1!G]4 [!2!C!1!E]4 | [!2!B,!1!G]4 !3!G,2 !2!A,2 | %143
 !2!B,2 !3!G,2 !1!D4 | !3!G,2 !2!C2 !1!G4 | !2!C2 !1!F2 [!3!G,!2!B,!1!D]4 | %146
 !fermata![!4!C,!3!G,!2!C!1!E]8 |] %147
V:3
 x8 | x8 | x8 | x8 | x8 | x8 | x8 | x8 | x8 | x8 | x8 | x8 | x8 | x8 | x8 | x8 | x8 | x8 | x8 | %19
w: |||||||||||||||||||
 x8 | x8 | x8 | x8 | x8 | x8 | x8 | x8 | x8 | x8 | x8 | x8 | x4 (A,2 G,2) | (A,2 B,2) x4 | x8 | %34
w: |||||||||||||0 *||
 x8 | x8 | x8 | x8 | x8 | x8 | x8 | x4 A,4 | x8 | x8 | A,4 x4 | x8 | x8 | x8 | x8 | x8 | x8 | x8 | %52
w: ||||||||||||||||||
 x8 | x8 | x8 | x8 | x8 | x8 | x8 | x8 | x8 | x8 | x8 | x8 | x8 | x8 | x8 | x8 | x8 | x8 | x8 | %71
w: |||||||||||||||||||
 x8 | x8 | x8 | x8 | x8 | x8 | A,4 A,4 | x8 | x8 | x8 | x8 | x8 | x8 | x8 | x8 | x8 | x8 | x8 | %89
w: ||||||||||||||||||
 x8 | x8 | x8 | x8 | x8 | x8 | x8 | x8 | x8 | A,4 x4 | x8 | x8 | D4 A,4 | x8 | x8 | x8 | x8 | x8 | %107
w: ||||||||||||||||||
 x8 | x8 | x8 | x8 | x8 | x8 | x8 | x8 | x8 | x8 | x8 | x8 | x8 | x8 | x8 | x8 | x8 | x8 | x8 | %126
w: |||||||||||||||||||
 x8 | x8 | x8 | x8 | x8 | x8 | x8 | x8 | x8 | x8 | x8 | x8 | x8 | x8 | x8 | x8 | x8 | x4 D4 | x8 | %145
w: |||||||||||||||||||
 x8 | x8 |] %147
w: ||
V:4
 x8 | x8 | x8 | x8 | x8 | x8 | x8 | x8 | x8 | x8 | x8 | x8 | x8 | x8 | x8 | x8 | x8 | x8 | x8 | %19
 x8 | x8 | x8 | x8 | x8 | x8 | x8 | x8 | x8 | x8 | x8 | x8 | x4 (!3!A,2 !3!G,2) | %32
 (!2!A,2 !2!B,2) x4 | x8 | x8 | x8 | x8 | x8 | x8 | x8 | x8 | x4 !3!A,4 | x8 | x8 | !3!A,4 x4 | %45
 x8 | x8 | x8 | x8 | x8 | x8 | x8 | x8 | x8 | x8 | x8 | x8 | x8 | x8 | x8 | x8 | x8 | x8 | x8 | %64
 x8 | x8 | x8 | x8 | x8 | x8 | x8 | x8 | x8 | x8 | x8 | x8 | x8 | !3!A,4 !3!A,4 | x8 | x8 | x8 | %81
 x8 | x8 | x8 | x8 | x8 | x8 | x8 | x8 | x8 | x8 | x8 | x8 | x8 | x8 | x8 | x8 | x8 | !3!A,4 x4 | %99
 x8 | x8 | !2!D4 !2!A,4 | x8 | x8 | x8 | x8 | x8 | x8 | x8 | x8 | x8 | x8 | x8 | x8 | x8 | x8 | %116
 x8 | x8 | x8 | x8 | x8 | x8 | x8 | x8 | x8 | x8 | x8 | x8 | x8 | x8 | x8 | x8 | x8 | x8 | x8 | %135
 x8 | x8 | x8 | x8 | x8 | x8 | x8 | x8 | x4 !2!D4 | x8 | x8 | x8 |] %147
V:5
 z8 | [C,,G,,]8 | [F,,A,,]8 | [F,,A,,]4 [E,,G,,]4 | [F,,A,,]6 G,,2 | [F,,A,,C,]4 [A,,C,]4 | %6
w: ||||||
 [G,,C,]4 B,,2 A,,2 | [G,,B,,]6 A,,2 | [G,,B,,]2 C,2 [G,,D,]2 A,,2 | [D,,B,,]2 C,2 D,2 E,,2 | %10
w: ||||
 F,,2 G,,2 [A,,C,]4 | [G,,C,]4 [G,,B,,]4 | [C,,C,]4 [C,G,]4 | [C,E,]4 C,4 | [F,A,]8 | %15
w: |||||
 [F,A,]4 [E,G,]4 | [F,A,]6 G,2 | A,4 C4 | [G,C]4 B,2 A,2 | [G,B,]8 | [G,A,]4 [^F,A,]4 | %21
w: ||||||
 [G,B,]2 C2 [D,F,A,D]2 E,2 | [F,A,D]2 G,2 [A,C]4 | [G,,D,G,]2 F,2 [G,,D,]4 | [C,,G,,C,G,]4 C,,4 | %25
w: ||||
 [C,,C,]4 C,4 | [F,,C,]8 | [F,,A,,]4 [F,,A,,]4 | D,,2 D,2 [G,,D,]4 | D,,4 D,2 D,,2 | %30
w: |||||
 [G,,D,]4 B,,2 C,2 | D,2 E,2 F,2 G,2 | [F,A,]2"^(    )" [E,G,]2 [C,G,]4 | [D,F,]4 D,4 | %34
w: ||||
 [C,G,]4 C,,4 | C,4 C,,4 | [C,E,]4 C,,4 | [F,,C,]8 | [G,,D,]4 [G,,D,]4 | [G,,G,]8 | %40
w: ||||||
 [A,,F,]4 [A,,E,]4 | A,,2 D,2 C,2 A,,2 | [E,,B,,]4 E,4 | E,,4 E,4 | %44
w: ||||
"^(   )" [D,F,]4"^(   )" [C,G,]4 | [F,A,]6 E,2 | D,4 C,4 | G,4 A,4 | G,4 G,,4 | [C,G,]4 C,,4 | %50
w: ||||||
 G,,4 [A,,E,]4 | D,2 F,,2 C,4 | A,4 F,,2 E,2 | [G,,D,]4 [G,,C,]4 | [C,D,]4 [B,,D,]4 | %55
w: |||||
 [C,,C,]6 B,,2 | [A,,E,]4 [E,,G,,]4 | [F,,A,,]4 [A,,C,]4 | F,,4 A,,4 | F,,8 | %60
w: |||||
 [G,,G,]2 D,2 [G,,G,]4- | [G,,G,]2 F,2 [G,,D,]4 | [C,,C,]8 | [C,,C,]8 | [C,G,]8 | G,8 | [C,,C,]8 | %67
w: |||||||
 [G,,D,]4 E,4 | [G,,D,G,_B,]6 A,2 | G,2 F,2 [G,,D,G,]4 | [D,G,]4 ^F,2 E,2 | D,4 D,,4 | D,6 E,2 | %73
w: 3 4||||||
 F,2 D,2 [^C,E,]4 | D,4 D,4 | [A,,E,]6 F,2 | [C,G,]2 E,2 G,4 | C,2 F,2 [F,A,]2 B,2 | %78
w: |||||
 [C,F,C]4 [C,E,]4 | [F,A,]4 F,,4 | [F,,A,,]4 F,,4 | D,,8 | D,4 D,,4 | [G,,D,]6 A,,2 | %84
w: ||||||
 B,,2 C,2 D,2 B,,2 | [C,G,]4 C,,4 | [G,,D,]4 G,,4 | G,4 A,4- | A,2 G,2 G,4 | A,4 D,4 | D,4 C,4 | %91
w: |||||||
 [G,,B,,]4 D,2 F,,2 | [E,,G,,]6 A,,2 | [D,,B,,]4 A,,4 | [E,,G,,]4 C,,4 | G,,2 F,2 [G,,D,]4 | %96
w: |||||
 [C,E,]4 C,,4 | C,2 D,2 [C,E,]4 | [F,A,]4 F,,4 | C,4 C,,4 | D,,4 D,4 | D,2 E,2 ^F,2 D,2 | G,8 | %103
w: |||||||
 G,4 F,4 | E,4 D,2 C,2 | [D,A,]4 [D,F,]4 | [C,G,]4 C,,4- | C,,2 D,,2 E,,4 | F,,8 | C,,8 | %110
w: |||||||
 C,4 B,,2 A,,2 | B,,4 G,,2 A,,2 | B,,2 C,2 D,2 D,,2- | D,,2 E,,2 F,,4 | F,,2 E,,2 C,,4 | D,,8 | %116
w: ||||||
 C,,8 | [C,,C,]4 [C,,C,]4- | [C,,C,]2 D,2 E,4 | G,4 G,,4 | [G,,D,]2 [A,,D,]2 [B,,D,]4 | %121
w: |||||
 [C,E,]6 B,,2 | [A,,C,]2 D,2 [G,,E,]4 | [F,A,]4 F,,4 | %124
w: |||
 C,2 D,2 E,2"^(No ties or slurs in original)" z2 | C,4 [D,,B,,]4 | [C,,C,]8 | C,4 B,,4 | %128
w: ||||
 [A,,C,]4 A,,4- | A,,4 G,,4 | F,,2 G,,2 A,,2 [B,,D,]2 | %131
w: |||
 [C,E,]2 F,2 [C,G,]2"^(    )""^(Pitch is A in original)" E,2 | [G,,D,]4 G,,4 | [A,,C,]6 B,,2 | %134
w: |||
 C,4 [A,,C,]4 | [G,,D,]8 | [A,,C,]8 | [A,,C,]2 D,2 [G,,E,]4 | [F,,C,F,]4 D,2 D,,2 | F,,4 E,,4 | %140
w: 0 *||||||
 [D,,B,,]4 A,,4 | G,,2 G,2 G,,2 A,,2 | ([B,,D,]2 G,,2) [G,,E,]4 | [G,,D,]4 (G,2 A,2) | %144
w: ||||
 B,2 G,2 ([G,,D,]2 C,2) | [G,,D,]4 [G,,D,]4 | !fermata![C,,C,E,]8 |] %147
w: * * 1 0|||
V:6
 x8 |"_Tune bottom string of Viol 2 down to low C" [!6!C,,!5!G,,]8 | [!6!F,,!5!A,,]8 | %3
 [!6!F,,!5!A,,]4 [!6!E,,!5!G,,]4 | [!6!F,,!5!A,,]6 !5!G,,2 | [!6!F,,!5!A,,!4!C,]4 [!5!A,,!4!C,]4 | %6
 [!5!G,,!4!C,]4 !5!B,,2 !5!A,,2 | [!6!G,,!5!B,,]6 !5!A,,2 | %8
 [!6!G,,!5!B,,]2 !4!C,2 [!5!G,,!4!D,]2 !5!A,,2 | [!6!D,,!5!B,,]2 !5!C,2 !4!D,2 !6!E,,2 | %10
 !6!F,,2 !5!G,,2 [!5!A,,!4!C,]4 | [!5!G,,!4!C,]4 [!6!G,,!5!B,,]4 | [!6!C,,!5!C,]4 [!4!C,!3!G,]4 | %13
 [!4!C,!3!E,]4 !4!C,4 | [!3!F,!2!A,]8 | [!3!F,!2!A,]4 [!4!E,!3!G,]4 | [!3!F,!2!A,]6 !3!G,2 | %17
 !2!A,4 !2!C4 | [!3!G,!2!C]4 !2!B,2 !2!A,2 | [!3!G,!2!B,]8 | [!3!G,!2!A,]4 [!3!^F,!2!A,]4 | %21
 [!3!G,!2!B,]2 !2!C2 [!4!D,!3!F,!2!A,!1!D]2 !3!E,2 | [!3!F,!2!A,!1!D]2 !3!G,2 [!3!A,!2!C]4 | %23
 [!5!G,,!4!D,!3!G,]2 !3!F,2 [!5!G,,!4!D,]4 | [!6!C,,!5!G,,!4!C,!3!G,]4 !6!C,,4 | %25
 [!6!C,,!5!C,]4 !4!C,4 | [!6!F,,!5!C,]8 | [!6!F,,!5!A,,]4 [!6!F,,!5!A,,]4 | %28
 !6!D,,2 !4!D,2 [!5!G,,!4!D,]4 | !6!D,,4 !4!D,2 !6!D,,2 | [!5!G,,!4!D,]4 !5!B,,2 !4!C,2 | %31
 !4!D,2 !3!E,2 !3!F,2 !3!G,2 | [!3!F,!2!A,]2 [!4!E,!3!G,]2 [!4!C,!3!G,]4 | [!4!D,!3!F,]4 !4!D,4 | %34
 [!4!C,!3!G,]4 !6!C,,4 | !4!C,4 !6!C,,4 | [!4!C,!3!E,]4 !6!C,,4 | [!6!F,,!5!C,]8 | %38
 [!5!G,,!4!D,]4 [!5!G,,!4!D,]4 | [!5!G,,!4!G,]8 | [!5!A,,!4!F,]4 [!5!A,,!4!E,]4 | %41
 !5!A,,2 !4!D,2 !4!C,2 !5!A,,2 | [!6!E,,!5!B,,]4 !3!E,4 | !6!E,,4 !3!E,4 | %44
 [!4!D,!3!F,]4 [!4!C,!3!G,]4 | [!3!F,!2!A,]6 !3!E,2 | !4!D,4 !4!C,4 | !3!G,4 !2!A,4 | %48
 !3!G,4 !5!G,,4 | [!4!C,!3!G,]4 !6!C,,4 | !5!G,,4 [!5!A,,!4!E,]4 | !4!D,2 !6!F,,2 !4!C,4 | %52
 !2!A,4 !6!F,,2 !3!E,2 | [!5!G,,!4!D,]4 [!5!G,,!4!C,]4 | [!5!C,!4!D,]4 [!5!B,,!4!D,]4 | %55
 [!6!C,,!5!C,]6 !5!B,,2 | [!5!A,,!4!E,]4 [!6!E,,!5!G,,]4 | [!6!F,,!5!A,,]4 [!5!A,,!4!C,]4 | %58
 !6!F,,4 !5!A,,4 | !6!F,,8 | [!5!G,,!4!G,]2 !4!D,2 [!5!G,,!4!G,]4- | %61
 [!5!G,,!4!G,]2 !3!F,2 [!5!G,,!4!D,]4 | [!6!C,,!4!C,]8 | [!6!C,,!5!C,]8 | [!4!C,!3!G,]8 | !3!G,8 | %66
 [!6!C,,!5!C,]8 | [!5!G,,!4!D,]4 !3!E,4 | [!5!G,,!4!D,!3!G,!2!_B,]6 !2!A,2 | %69
 !3!G,2 !3!F,2 [!5!G,,!4!D,!3!G,]4 | [!4!D,!3!G,]4 !3!^F,2 !3!E,2 | !4!D,4 !6!D,,4 | %72
 !4!D,6 !3!E,2 | !3!F,2 !4!D,2 [!4!^C,!3!E,]4 | !4!D,4 !4!D,4 | [!5!A,,!4!E,]6 !3!F,2 | %76
 [!4!C,!3!G,]2 !3!E,2 !3!G,4 | !4!C,2 !3!F,2 [!3!F,!2!A,]2 !2!B,2 | %78
 [!4!C,!3!F,!2!C]4 [!4!C,!3!E,]4 | [!3!F,!2!A,]4 !6!F,,4 | [!6!F,,!5!A,,]4 !6!F,,4 | !6!D,,8 | %82
 !4!D,4 !6!D,,4 | [!5!G,,!4!D,]6 !5!A,,2 | !5!B,,2 !4!C,2 !4!D,2 !5!B,,2 | [!4!C,!3!G,]4 !6!C,,4 | %86
 [!5!G,,!4!D,]4 !5!G,,4 | !3!G,4 !2!A,4- | !2!A,2 !3!G,2 !3!G,4 | !2!A,4 !4!D,4 | !4!D,4 !4!C,4 | %91
 [!6!G,,!5!B,,]4 !4!D,2 !6!F,,2 | [!6!E,,!5!G,,]6 !5!A,,2 | [!6!D,,!5!B,,]4 !5!A,,4 | %94
 [!6!E,,!5!G,,]4 !6!C,,4 | !5!G,,2 !3!F,2 [!5!G,,!4!D,]4 | [!4!C,!3!E,]4 !6!C,,4 | %97
 !4!C,2 !4!D,2 [!4!C,!3!E,]4 | [!3!F,!2!A,]4 !6!F,,4 | !4!C,4 !6!C,,4 | !6!D,,4 !4!D,4 | %101
 !4!D,2 !3!E,2 !3!^F,2 !4!D,2 | !3!G,8 | !3!G,4 !3!F,4 | !3!E,4 !4!D,2 !4!C,2 | %105
 [!4!D,!3!A,]4 [!4!D,!3!F,]4 | [!4!C,!3!G,]4 !6!C,,4- | !6!C,,2 !6!D,,2 !6!E,,4 | !6!F,,8 | %109
 !6!C,,8 | !4!C,4 !5!B,,2 !5!A,,2 | !5!B,,4 !5!G,,2 !5!A,,2 | !5!B,,2 !4!C,2 !4!D,2 !6!D,,2- | %113
 !6!D,,2 !6!E,,2 !6!F,,4 | !6!F,,2 !6!E,,2 !6!C,,4 | !6!D,,8 | !6!C,,8 | %117
 [!6!C,,!5!C,]4 [!6!C,,!5!C,]4- | [!6!C,,!4!C,]2 !4!D,2 !3!E,4 | !3!G,4 !5!G,,4 | %120
 [!5!G,,!4!D,]2 [!5!A,,!4!D,]2 [!5!B,,!4!D,]4 | [!4!C,!3!E,]6 !5!B,,2 | %122
 [!5!A,,!4!C,]2 !4!D,2 [!5!G,,!4!E,]4 | [!3!F,!2!A,]4 !6!F,,4 | !4!C,2 !4!D,2 !3!E,2 x2 | %125
 !4!C,4 [!6!D,,!5!B,,]4 | [!6!C,,!5!C,]8 | !4!C,4 !5!B,,4 | [!5!A,,!4!C,]4 !5!A,,4- | %129
 !5!A,,4 !5!G,,4 | !6!F,,2 !5!G,,2 !5!A,,2 [!5!B,,!4!D,]2 | %131
 [!4!C,!3!E,]2 !3!F,2 [!4!C,!3!G,]2 !3!E,2 | [!5!G,,!4!D,]4 !5!G,,4 | [!5!A,,!4!C,]6 !5!B,,2 | %134
 !4!C,4 [!5!A,,!4!C,]4 | [!5!G,,!4!D,]8 | [!5!A,,!4!C,]8 | [!5!A,,!4!C,]2 !4!D,2 [!5!G,,!4!E,]4 | %138
 [!6!F,,!5!C,!4!F,]4 !4!D,2 !6!D,,2 | !6!F,,4 !6!E,,4 | [!6!D,,!5!B,,]4 !5!A,,4 | %141
 !5!G,,2 !3!G,2 !5!G,,2 !5!A,,2 | ([!5!B,,!4!D,]2 !5!G,,2) [!5!G,,!4!E,]4 | %143
 [!5!G,,!4!D,]4 (!3!G,2 !2!A,2) | !2!B,2 !3!G,2 ([!5!G,,!4!D,]2 !4!C,2) | %145
 [!5!G,,!4!D,]4 [!5!G,,!4!D,]4 | !fermata![!6!C,,!4!C,!3!E,]8 |] %147
V:7
 x8 | x8 | x8 | x8 | x8 | x8 | x8 | x8 | x8 | x8 | x8 | x8 | x8 | x8 | x8 | x8 | x8 | A,4 A,4 | %18
 x8 | x8 | x8 | x8 | x8 | x8 | x8 | x8 | x8 | x8 | x8 | x8 | x8 | x8 | x8 | x8 | x8 | x8 | x8 | %37
 x8 | x8 | x8 | x8 | x8 | x4 E,4 | x8 | x8 | x8 | x8 | x8 | x8 | x8 | x8 | x8 | x8 | x8 | x8 | x8 | %56
 x8 | x8 | x8 | x8 | x8 | x8 | C,8 | x8 | x8 | x8 | x8 | x8 | x8 | x8 | x8 | x8 | x8 | x8 | x8 | %75
 x8 | x8 | x8 | x8 | x8 | x8 | x8 | x8 | x8 | x8 | x8 | x8 | x8 | x8 | x8 | x8 | x8 | x8 | x8 | %94
 x8 | x8 | x8 | x8 | x8 | C,4 x4 | x8 | x8 | x8 | x8 | x8 | x8 | x8 | x8 | x8 | x8 | x8 | x8 | x8 | %113
 x8 | x8 | x8 | x8 | x8 | x8 | x8 | x8 | C,6 x2 | x8 | x8 | x6 ([E,,C,-]2 | D,,4) x4 | x8 | x8 | %128
 x8 | x8 | x8 | x8 | x8 | x8 | x8 | x8 | x8 | x8 | x8 | x8 | x8 | x8 | x8 | x8 | x8 | x8 | C,8 |] %147
V:8
 x8 | x8 | x8 | x8 | x8 | x8 | x8 | x8 | x8 | x8 | x8 | x8 | x8 | x8 | x8 | x8 | x8 | %17
 !3!A,4 !3!A,4 | x8 | x8 | x8 | x8 | x8 | x8 | x8 | x8 | x8 | x8 | x8 | x8 | x8 | x8 | x8 | x8 | %34
 x8 | x8 | x8 | x8 | x8 | x8 | x8 | x8 | x4 !4!E,4 | x8 | x8 | x8 | x8 | x8 | x8 | x8 | x8 | x8 | %52
 x8 | x8 | x8 | x8 | x8 | x8 | x8 | x8 | x8 | x8 | !5!C,8 | x8 | x8 | x8 | x8 | x8 | x8 | x8 | x8 | %71
 x8 | x8 | x8 | x8 | x8 | x8 | x8 | x8 | x8 | x8 | x8 | x8 | x8 | x8 | x8 | x8 | x8 | x8 | x8 | %90
 x8 | x8 | x8 | x8 | x8 | x8 | x8 | x8 | x8 | !5!C,4 x4 | x8 | x8 | x8 | x8 | x8 | x8 | x8 | x8 | %108
 x8 | x8 | x8 | x8 | x8 | x8 | x8 | x8 | x8 | x8 | x8 | x8 | x8 | !5!C,6 x2 | x8 | x8 | %124
 x6 ([!6!E,,!5!C,-]2 | !6!D,,4) x4 | x8 | x8 | x8 | x8 | x8 | x8 | x8 | x8 | x8 | x8 | x8 | x8 | %138
 x8 | x8 | x8 | x8 | x8 | x8 | x8 | x8 | !5!C,8 |] %147

